X: 26533
T: Michael's
R: polka
M: 2/4
K: Amajor
|:A2 B>A|cA A>e|ce ae|e/f/e/c/ AE|
A2 B>A|cA A2|ce f/e/c/A/|1 BA A2:|2 BA AB/c/||
ef/a/ fe|cf ec|Ac/e/ cA|cB B>c|
ef/a/ fe|cf ec|ce f/e/c/A/|BA A2||
ef/a/ fe|cf ec|Ac/e/ cA|cB B>c|
A2 B>A|cA A2|ce f/e/c/A/|BA A2||

